X: 450
T: I have a wife of my own
C:anon.
O:Ireland
B:Francis O'Neill: "The Dance Music of Ireland" (1907) no. 450
R:Hop, Slip jig
Z:Transcribed by Frank Nordberg - http://www.musicaviva.com
F:http://www.musicaviva.com/abc/tunes/ireland/oneill-1001/oneill-1001-045
0.abc
M:9/8
L:1/8
K:Dmix
EFE (G2A) B3|(E2F) G2(B A)FD|EFE (G2A) Bcd|DFA (dc)(B A)FD|\
EFE (G2A) B3|EFE G2(B A)FD|EFE (G2A) Bcd|DFA (dc)(B A)FD||
||gag fgf e3|EFE G2A BGE|gbg faf d3|DFA dcB AFD|\
gag fgf e3|EFE G2A BGE|gbg afd g3|DFA dcB AFD|]
W:
W:
W:  From Musica Viva - http://www.musicaviva.com
W:  the Internet center for free sheet music downloads.


